!!!COM: Bach, Johann Sebastian
!!!OPR: Joh. Seb. Bachs vierstimmige Choralgesänge
!!!XEN: Four-part Chorales
!!!OTL: 93. Ich dank' dir Gott für all Wohltat
!!!SCT: BWV 346
!!!SCA: Thematisch-systematisches Verzeichnis der musikalischen Werke Johann Sebastian Bach: Bach-Werke-Verzeichnis (Schmieder)
!!!YOR: Bach Gesellschaft Edition xxxix
!!!ENC: Steven Rasmussen
!!!CDT: 1685/3//-1750/7/28/
!!!OCY: Deutschland
!!!YEC: Copyright (c) 1994, 2000 Center for Computer Assisted Research in the Humanities
!!!YEM: Rights to all derivative editions reserved
!!!YEN: United States of America
**kern	**silbe	**kern	**silbe	**kern	**kern	**silbe
*I:[BASSO]	*I:[BASSO]	*I:[TENORE]	*I:[TENORE]	*I:[ALTO]	*I:[SOPRANO]	*I:[SOPRANO]
*clefF4	*	*clefGv2	*	*clefG2	*clefG2	*
*k[]	*	*k[]	*	*k[]	*k[]	*
*C:	*	*C:	*	*C:	*C:	*
*M4/4	*	*M4/4	*	*M4/4	*M4/4	*
4C	.	8EL	.	4c	4g	Ich
.	.	8FJ	.	.	.	.
=1	=1	=1	=1	=1	=1	=1
4BB-	.	4G	.	4c	4e	dank'
4AA	.	4A	.	4c	4f#	dir
4GG;	.	4D;	.	4B;	4g;	Gott
4BBn	.	4G	.	4d	4g	fÃ¼r
=2	=2	=2	=2	=2	=2	=2
4C	.	4G	.	(8d	4e	all'
.	.	.	.	4c)	.	.
4GG	.	8.GL	.	.	4d	Wohl-
.	.	.	.	8B	.	.
.	.	16FJk	.	.	.	.
4CC;	.	4E;	.	4G;	4c;	-tat,
4C	.	4E	.	4G	4c	dass
=3	=3	=3	=3	=3	=3	=3
4BB	.	4G	.	4d	4g	du
8CL	.	4c	.	4e	4g	uns
8BBJ	.	.	.	.	.	.
4AA	.	4c	.	8eL	4a	hast
.	.	.	.	8f#J	.	.
4GG	.	4d	.	4g	4b	so
=4	=4	=4	=4	=4	=4	=4
4E	.	4c	.	8gL	4cc	gnÃ¤-
.	.	.	.	8f#J	.	.
4D	.	4d	.	2g	4b	.
4C	.	4e	.	.	4a	.
4D	.	8.dL	.	8gL	4a	-dig-
.	.	.	.	8f#J	.	.
.	.	16cJk	.	.	.	.
=5	=5	=5	=5	=5	=5	=5
2GG;	.	2B;	.	2d;	2g;	-lich
4r	.	4r	.	4r	4r	.
4E	.	4c	.	4e	4g	die
=6	=6	=6	=6	=6	=6	=6
4F	.	4c	.	8eL	4a	Nacht
.	.	.	.	8dJ	.	.
4GG#	.	4B	.	8dL	4b	be-
.	.	.	.	8eJ	.	.
4AA;	.	4A;	.	4e;	4cc;	-hÃ¼t't
4C	.	4E	.	4c	4g	durch
=7	=7	=7	=7	=7	=7	=7
4.F	.	4F	.	8cL	4a	dei-
.	.	.	.	8B	.	.
.	.	4G	.	8c	4g	.
8E	.	.	.	8c#	.	.
8DL	.	4A	.	8d	4f	.
8EJ	.	.	.	8c#J	.	.
8FL	.	4A	.	4d	4f	-ne
8DJ	.	.	.	.	.	.
=8	=8	=8	=8	=8	=8	=8
2A;	.	2A;	.	(4d	2e;	GÃ¼t'
.	.	.	.	4c#;)	.	.
4r	.	4r	.	4r	4r	.
4E	.	4c	.	4g	4cc	und
=9	=9	=9	=9	=9	=9	=9
8FL	.	4c	.	8gL	4a	bitt'
8EJ	.	.	.	16fL	.	.
.	.	.	.	16eJJ	.	.
4D	.	4d	.	4f	4b	nun
4C;	.	4G;	.	4e;	4cc;	fort,
4D	.	8dL	.	4f	4a	ach
.	.	8cJ	.	.	.	.
=10	=10	=10	=10	=10	=10	=10
8DL	.	4B-	.	4e	4g	Gott,
8C#J	.	.	.	.	.	.
4D	.	4A	.	8eL	4f	mein
.	.	.	.	8dJ	.	.
4AA;	.	4A;	.	(8dL	4e;	Hort,
.	.	.	.	8c#;J)	.	.
4BB	.	4G	.	4d	4g	vor
=11	=11	=11	=11	=11	=11	=11
4C#	.	(8G	.	4e	4e	SÃ¼nd'
.	.	4A)	.	.	.	.
4D#	.	.	.	4B	4f#	und
.	.	16GLL	.	.	.	.
.	.	16F#JJ	.	.	.	.
4E;	.	4E;	.	4B;	4g;	G'fahr
8EL	.	8eL	.	8gL	4cc	mich
8F#J	.	8dJ	.	8aJ	.	.
=12	=12	=12	=12	=12	=12	=12
4G	.	4d	.	(8a	4b	heut'
.	.	.	.	4g)	.	.
4D	.	8.dL	.	.	4a	be-
.	.	.	.	8f#	.	.
.	.	16cJk	.	.	.	.
4GG;	.	4B;	.	4d;	4g;	-wahr',
4BB	.	4G	.	4d	4g	dass
=13	=13	=13	=13	=13	=13	=13
8CL	.	4G	.	4c	8eL	mir
8DJ	.	.	.	.	8fJ	.
8EL	.	8cL	.	4c	4g	kein
8CJ	.	8B-J	.	.	.	.
4F	BÃ¶-	8.AL	BÃ¶-	(8c	4a	BÃ¶-
.	.	.	.	4f)	.	.
.	.	16Bnk	.	.	.	.
[4C	.	8.c	.	.	4g	-ses
.	.	.	.	8e	.	.
.	.	16B-Jk	.	.	.	.
=14	=14	=14	=14	=14	=14	=14
8CL]	.	8AL	.	4.d	4f	wi-
8BBJ	.	8GJ	.	.	.	.
4C	-ses	4G	-ses	.	4e	.
.	.	.	.	[8c	.	.
4FF	.	8AL	wi-	8cL]	4d	.
.	.	8DJ	.	16BL	.	.
.	.	.	.	16AJJ	.	.
4GG	.	8GL	-der-	4B	4d	-der-
.	.	8FJ	.	.	.	.
=15	=15	=15	=15	=15	=15	=15
1CC;	.	1E;	-fahr!	1G;	1c;	-fahr!
==|!	==|!	==|!	==|!	==|!	==|!	==|!
*-	*-	*-	*-	*-	*-	*-
!!!RWG: Key is interpreted using the Humdrum key tool.
!!!URL-pdf: https://s9.imslp.org/files/imglnks/usimg/6/6b/IMSLP24489-PMLP09471-CCARH_Bach_Chorales.pdf#page=66 Musedata edition
!!!URL-pdf: https://s9.imslp.org/files/imglnks/usimg/7/7a/IMSLP04155-Bach_-_BGA_253-438.pdf#page=50 	Bach-Gesellschaft Ausgabe, Band 39 (pp.175-276) Leipzig: Breitkopf und Härtel, 1892. Plate B.W. XXXIX.
!!!END: 1994/06/27
!!!EMD: Converted from MuseData to Humdrum Dec 19, 2000, by Andreas Kornstaedt using muse2kern.
!!!EED: Craig Stuart Sapp
!!!EEV: 2024/03/31
!!!filter-keyboard: satb2gs
!!!title: @{OTL} (@{SCT})
